X:1757531548
T: Morpeth Rant, The
S: https://thesession.org/tunes/1310
R: reel
M: 4/4
L: 1/8
K: Dmajor
|:A|d2AG FDFA|BGBd cAce|d2f2 gfed|c2e2 e2Ac|
d2AG FDFA|BGBd cAce|d2f2 gfec|A2d2 d3:|
|:A|dfaf dfaf|gfef g2ef|gfed cABc|defg f2A2|
dfaf dfaf|gfef g2ef|gfed cABc|d2f2 d3:|

Good version:
https://youtu.be/ogZMXmpvqh4?feature=shared

